X:563
T:Morgan Rattler
S:Colin Hume's website,  colinhume.com  - chords can also be printed below the stave.
Q:3/8=120
M:6/8
L:1/8
K:D
P:A
"A"AFE EFG | "D"FEF D2B | "A"AFE EFG | "G"B2A Bcd |\
"A"AFE EFG | "D"FEF D2A | "D"dcB "A"edc | "G"B2A Bcd :|
P:B
|: "D"d2d fed | "A"cAc edc | "D"d2d fed | "G"f2e "A"fga |\
"D"d2e "A/C#"f2g | "Bm7"agf "A"edc | "G"dcB "Em7"edc | "A"B2A Bcd :|
P:C
|: "D"D2d dcd | "Em"E2e ede | "D/F#"D2d dcd | "G"B2A "A"Bcd |\
"D"D2d dcd | "Em"E2e efg || "^CONTINUING..." "Bm7"agf "A"edc | "G"B2A Bcd :|
P:Last time
"A"cBA GFE | "D"Dz2 z3 |]

